X: 98
T: Zana ha er ma The black horse zmon
L: 1/8
M: 2/4
K: C
G G/ E/ G A [I:setbarnb 1]| 
c3d | 
c> d e/ d/ e/ g/ | 
G4 | 
c c/ d/ E D/ E/ | 
G3A | 
D> G E D | 
C4 | 
G G/ E/ G A | 
c3d | 
c> d e/ d/ e/ g/ | 
G4 | 
G> A c E | 
D3E | 
D> G E D | 
C4 |]

@@@ Tune index: 8766
